img/icons/mime/large/ief.svg

<svg height="140.9" width="125.3" xmlns="http://www.w3.org/2000/svg" xmlns:xlink="http://www.w3.org/1999/xlink"><linearGradient id="a" gradientTransform="matrix(.939922 0 0 .896911 -12.081733 -3.352424)" gradientUnits="userSpaceOnUse" x1="24" x2="73" y1="16.4" y2="73.4"><stop offset="0" stop-color="#fff"/><stop offset="1" stop-color="#fff" stop-opacity="0"/></linearGradient><linearGradient id="b" gradientTransform="matrix(1.222575 0 0 .738788 -10.653167 -7.742593)" gradientUnits="userSpaceOnUse" x1="12.2" x2="107.8" y1="84" y2="84"><stop offset="0" stop-color="#46a046"/><stop offset=".4" stop-color="#df421e"/><stop offset=".7" stop-color="#ada7c8"/><stop offset="1" stop-color="#eed680"/></linearGradient><g stroke="#000"><rect fill="none" height="133.4" rx="22.9" stroke-linejoin="round" stroke-opacity=".5" stroke-width="7.5" width="117.8" x="3.8" y="3.8"/><rect fill="#df421e" height="133.4" rx="22.9" stroke-width="3.8" width="117.8" x="3.6" y="3.7"/><rect fill="url(#b)" height="67.2" rx="1.3" stroke-width="3.3" width="113.7" x="5.9" y="20.8"/></g><path d="m100.3 132.6h-75.7c-11.6 0-17.3-5.7-17.3-17.4 0 0 27.6-66.5 110.4-76.6v76.6c0 11.7-5.7 17.4-17.4 17.4z" fill="#fff" fill-opacity=".3"/><path d="m24.6 7.3h75.7c11.7 0 17.4 5.7 17.4 17.4 0 0-79.3.9-110.4 91.3v-91.3c0-10.3 7-17.4 17.3-17.4z" fill="url(#a)"/><path d="m95.3 102.3h-10c-1.5 0-2.8.2-3.7.6-.5.1-.9.3-1.2.4-.4.2-.7.5-1 .8-.9.8-1.5 1.8-1.9 3l-.3 1-.1 1v.9h18.2v5.1h-18.2v13h-6.7v-15.6c0-1.3.1-2.5.1-3.5.1-1.1.3-2 .4-2.7.6-2.6 1.8-4.7 3.6-6.3 1.1-1.1 2.4-1.8 4-2.3s3.7-.7 6.1-.7h10.7zm-28.1 12.8h-18.3v.2l.5 2.4c.4 1.3 1.1 2.5 2.1 3.5.2.1.4.3.6.4.3.2.8.5 1.4.7l1.3.4 1.7.1h10.7v5.3h-12.6c-4.2 0-7.4-1.3-9.7-4-2.2-2.7-3.4-6.5-3.4-11.6 0-5 1.2-8.9 3.4-11.5 2.2-2.7 5.5-4 9.7-4h12.6v5.3h-10.7-.8l-.7.1c-.6 0-1.1.2-1.7.4-.6.3-1.2.7-1.8 1.1-.7.7-1.2 1.5-1.7 2.6-.3.7-.6 1.8-.9 3.3v.2h18.3zm-30.3 13h-6.8v-31.1h6.8z"/><path d="m94.6 101.7h-10c-1.5 0-2.8.1-3.7.5-.5.1-.9.3-1.2.5s-.7.4-1 .8c-.9.8-1.5 1.8-1.9 2.9l-.3 1v1.1.8h18.1v5.1h-18.1v13h-6.8v-15.5c0-1.4.1-2.6.2-3.6 0-1 .2-1.9.4-2.7.5-2.6 1.7-4.7 3.5-6.3 1.1-1 2.5-1.8 4.1-2.3s3.6-.7 6-.7h10.7zm-28.1 12.7h-18.2v.2l.4 2.5c.4 1.2 1.1 2.4 2.1 3.4.2.2.4.3.6.4.3.2.8.5 1.4.8l1.3.3 1.7.1h10.7v5.3h-12.6c-4.2 0-7.4-1.3-9.7-4-2.2-2.7-3.3-6.5-3.3-11.5 0-5.1 1.1-9 3.3-11.6 2.3-2.7 5.5-4 9.7-4h12.6v5.4h-10.7-.7-.8c-.5 0-1.1.2-1.7.4-.5.3-1.2.7-1.8 1.2-.7.6-1.2 1.4-1.7 2.5-.3.7-.6 1.8-.8 3.3v.2h18.2zm-30.3 13h-6.7v-31.1h6.7z" fill="#fff"/></svg>

<svg xmlns:svg="http://www.w3.org/2000/svg" xmlns="http://www.w3.org/2000/svg" xmlns:xlink="http://www.w3.org/1999/xlink" id="svg1" width="125.3" height="140.9" version="1">
<style>
.s0{
  stop-color:#46a046;
  stop-opacity:1;
}
.s1{
  stop-color:#df421e;
  stop-opacity:1;
}
.s2{
  stop-color:#ada7c8;
  stop-opacity:1;
}
.s3{
  stop-color:#eed680;
  stop-opacity:1;
}
.s4{
  stop-color:#00ff00;
  stop-opacity:1;
}
.s5{
  stop-color:#ff0000;
  stop-opacity:1;
}
.s6{
  stop-color:#7f8cff;
  stop-opacity:1;
}
.s7{
  stop-color:#ffff00;
  stop-opacity:1;
}

</style>  <metadata id="metadata15"/>
  <defs id="defs3">
    <linearGradient id="linearGradient3587">
      <stop id="stop3589" offset="0" style="stop-color:#efe0cd;stop-opacity:0.6"/>
      <stop id="stop3591" offset="1" style="stop-color:#cececd;stop-opacity:0.2"/>
    </linearGradient>
    <linearGradient id="linearGradient2832">
      <stop offset="0" id="stop2834" style="stop-color:#ffffff;stop-opacity:1"/>
      <stop offset="1" id="stop2836" style="stop-color:#ffffff;stop-opacity:0"/>
    </linearGradient>
    <linearGradient id="linearGradient839">
      <stop offset="0" id="stop840" class="s0"/>
      <stop offset="0.4" id="stop841" class="s1"/>
      <stop offset="0.7" id="stop842" class="s2"/>
      <stop offset="1" id="stop843" class="s3"/>
    </linearGradient>
    <linearGradient gradientUnits="userSpaceOnUse" gradientTransform="scale(1.353569,0.738788)" xlink:href="#linearGradient839" id="linearGradient836" x1="12.2" y1="84" x2="107.8" y2="84"/>
    <linearGradient xlink:href="#linearGradient2832" id="linearGradient2830" gradientTransform="matrix(0.939922,0,0,0.896911,-12.081733,-3.3524237)" x1="24" y1="16.4" x2="73" y2="73.4" gradientUnits="userSpaceOnUse"/>
    <linearGradient y2="93.7" x2="107.3" y1="124.3" x1="111.3" gradientTransform="matrix(0.777129,0,0,0.894628,-162.4688,12.76856)" gradientUnits="userSpaceOnUse" id="linearGradient1407" xlink:href="#linearGradient1700"/>
    <linearGradient y2="93.7" x2="107.3" y1="124.3" x1="111.3" gradientTransform="matrix(0.777129,0,0,0.894628,-2.922179,10.43077)" gradientUnits="userSpaceOnUse" id="linearGradient1390" xlink:href="#linearGradient1700"/>
    <linearGradient id="linearGradient1350">
      <stop offset="0" id="stop1352" class="s0"/>
      <stop offset="0.4" id="stop1354" class="s1"/>
      <stop offset="0.7" id="stop1356" class="s2"/>
      <stop offset="1" id="stop1358" class="s3"/>
    </linearGradient>
    <linearGradient xlink:href="#linearGradient839" id="linearGradient1360" x1="0" y1="0.5" x2="1" y2="0.5"/>
    <linearGradient xlink:href="#linearGradient1700" id="linearGradient1362" gradientTransform="matrix(0.870364,0,0,1.001961,4.612015,4.886798)" x1="123.5" y1="121.7" x2="128.7" y2="88" gradientUnits="userSpaceOnUse"/>
    <linearGradient xlink:href="#linearGradient839" id="linearGradient1363" x1="0" y1="0.5" x2="1" y2="0.5"/>
    <linearGradient id="linearGradient1353">
      <stop offset="0" id="stop1355" class="s0"/>
      <stop offset="0.4" id="stop1357" class="s1"/>
      <stop offset="0.7" id="stop1359" class="s2"/>
      <stop offset="1" id="stop1361" class="s3"/>
    </linearGradient>
    <linearGradient id="linearGradient1700">
      <stop offset="0" id="stop1701" style="stop-color:#000000;stop-opacity:0.7"/>
      <stop offset="1" id="stop1702" style="stop-color:#000000;stop-opacity:0"/>
    </linearGradient>
    <linearGradient y2="0.5" x2="1" y1="0.5" x1="0" id="linearGradient1427" xlink:href="#linearGradient839"/>
    <linearGradient id="linearGradient1417">
      <stop id="stop1419" offset="0" class="s0"/>
      <stop id="stop1421" offset="0.4" class="s1"/>
      <stop id="stop1423" offset="0.7" class="s2"/>
      <stop id="stop1425" offset="1" class="s3"/>
    </linearGradient>
    <linearGradient xlink:href="#linearGradient839" id="linearGradient1381" x1="0" y1="0.5" x2="1" y2="0.5"/>
    <linearGradient id="linearGradient1371">
      <stop offset="0" id="stop1373" class="s0"/>
      <stop offset="0.4" id="stop1375" class="s1"/>
      <stop offset="0.7" id="stop1377" class="s2"/>
      <stop offset="1" id="stop1379" class="s3"/>
    </linearGradient>
    <linearGradient y2="0.5" x2="1" y1="0.5" x1="0" id="linearGradient1374" xlink:href="#linearGradient839"/>
    <linearGradient id="linearGradient1364">
      <stop id="stop1366" offset="0" class="s0"/>
      <stop id="stop1368" offset="0.4" class="s1"/>
      <stop id="stop1370" offset="0.7" class="s2"/>
      <stop id="stop1372" offset="1" class="s3"/>
    </linearGradient>
    <linearGradient y2="0.5" x2="1" y1="0.5" x1="0" id="linearGradient1389" xlink:href="#linearGradient839"/>
    <linearGradient id="linearGradient833">
      <stop id="stop834" offset="0" class="s4"/>
      <stop id="stop837" offset="0.3" class="s5"/>
      <stop id="stop838" offset="0.8" class="s6"/>
      <stop id="stop835" offset="1" class="s7"/>
    </linearGradient>
    <linearGradient id="linearGradient1373">
      <stop id="stop1376" offset="0" class="s0"/>
      <stop id="stop1378" offset="0.4" class="s1"/>
      <stop id="stop1380" offset="0.7" class="s2"/>
      <stop id="stop1382" offset="1" class="s3"/>
    </linearGradient>
    <linearGradient y2="84" x2="107.8" y1="84" x1="12.2" gradientTransform="matrix(1.222575,0,0,0.738788,-10.653167,-7.7425927)" gradientUnits="userSpaceOnUse" id="linearGradient1401" xlink:href="#linearGradient839"/>
    <linearGradient y2="0.5" x2="1" y1="0.5" x1="0" id="linearGradient2974" xlink:href="#linearGradient839"/>
    <linearGradient id="linearGradient2964">
      <stop id="stop2966" offset="0" class="s4"/>
      <stop id="stop2968" offset="0.3" class="s5"/>
      <stop id="stop2970" offset="0.8" class="s6"/>
      <stop id="stop2972" offset="1" class="s7"/>
    </linearGradient>
    <linearGradient id="linearGradient2954">
      <stop id="stop2956" offset="0" class="s0"/>
      <stop id="stop2958" offset="0.4" class="s1"/>
      <stop id="stop2960" offset="0.7" class="s2"/>
      <stop id="stop2962" offset="1" class="s3"/>
    </linearGradient>
    <linearGradient y2="84" x2="107.8" y1="84" x1="12.2" gradientTransform="matrix(1.353569,0,0,0.738788,-182.1667,-25.6819)" gradientUnits="userSpaceOnUse" id="linearGradient2987" xlink:href="#linearGradient839"/>
    <linearGradient xlink:href="#linearGradient839" id="linearGradient1418" x1="0" y1="0.5" x2="1" y2="0.5"/>
    <linearGradient id="linearGradient1408">
      <stop offset="0" id="stop1410" class="s4"/>
      <stop offset="0.3" id="stop1412" class="s5"/>
      <stop offset="0.8" id="stop1414" class="s6"/>
      <stop offset="1" id="stop1416" class="s7"/>
    </linearGradient>
    <linearGradient id="linearGradient1397">
      <stop offset="0" id="stop1399" class="s0"/>
      <stop offset="0.4" id="stop1401" class="s1"/>
      <stop offset="0.7" id="stop1403" class="s2"/>
      <stop offset="1" id="stop1405" class="s3"/>
    </linearGradient>
    <linearGradient xlink:href="#linearGradient839" id="linearGradient1431" gradientUnits="userSpaceOnUse" gradientTransform="matrix(1.353569,0,0,0.738788,-194.7091,-13.83491)" x1="12.2" y1="84" x2="107.8" y2="84"/>
  </defs>
  <rect id="rect834" width="117.8" height="133.4" x="3.8" y="3.8" ry="22.9" rx="22.9" style="fill:none;stroke-linejoin:round;stroke-opacity:0.5;stroke-width:7.5;stroke:#000"/>
  <rect id="rect828" width="117.8" height="133.4" x="3.6" y="3.7" ry="22.9" rx="22.9" style="fill:#df421e;stroke-width:3.8;stroke:#000"/>
  <rect rx="1.3" y="20.8" x="5.9" ry="1.3" height="67.2" width="113.7" id="rect832" style="fill:url(#linearGradient1401);stroke-width:3.3;stroke:#000"/>
  <path d="M100.3 132.6L24.6 132.6C13 132.6 7.3 126.9 7.3 115.2 7.3 115.2 34.9 48.7 117.7 38.6L117.7 115.2C117.7 126.9 112 132.6 100.3 132.6z" id="path2838" style="fill-opacity:0.3;fill:#fff"/>
  <path d="M24.6 7.3L100.3 7.3C112 7.3 117.7 13 117.7 24.7 117.7 24.7 38.4 25.6 7.3 116L7.3 24.7C7.3 14.4 14.3 7.3 24.6 7.3z" id="rect2063" fill="url(#linearGradient2830)"/>
  <path d="M95.3 102.3L85.3 102.3C83.8 102.3 82.5 102.5 81.6 102.9 81.1 103 80.7 103.2 80.4 103.3 80 103.5 79.7 103.8 79.4 104.1 78.5 104.9 77.9 105.9 77.5 107.1L77.2 108.1 77.1 109.1 77.1 110 95.3 110 95.3 115.1 77.1 115.1 77.1 128.1 70.4 128.1 70.4 112.5C70.4 111.2 70.5 110 70.5 109 70.6 107.9 70.8 107 70.9 106.3 71.5 103.7 72.7 101.6 74.5 100 75.6 98.9 76.9 98.2 78.5 97.7 80.1 97.2 82.2 97 84.6 97L95.3 97 95.3 102.3zM67.2 115.1L48.9 115.1 48.9 115.3 49.4 117.7C49.8 119 50.5 120.2 51.5 121.2 51.7 121.3 51.9 121.5 52.1 121.6 52.4 121.8 52.9 122.1 53.5 122.3L54.8 122.7 56.5 122.8 67.2 122.8 67.2 128.1 54.6 128.1C50.4 128.1 47.2 126.8 44.9 124.1 42.7 121.4 41.5 117.6 41.5 112.5 41.5 107.5 42.7 103.6 44.9 101 47.1 98.3 50.4 97 54.6 97L67.2 97 67.2 102.3 56.5 102.3 55.7 102.3 55 102.4C54.4 102.4 53.9 102.6 53.3 102.8 52.7 103.1 52.1 103.5 51.5 103.9 50.8 104.6 50.3 105.4 49.8 106.5 49.5 107.2 49.2 108.3 48.9 109.8L48.9 110 67.2 110 67.2 115.1zM36.9 128.1L30.1 128.1 30.1 97 36.9 97 36.9 128.1z" id="path849" style="font-family:Trek;font-size:40;stroke-width:1"/>
  <path d="M94.6 101.7L84.6 101.7C83.1 101.7 81.8 101.8 80.9 102.2 80.4 102.3 80 102.5 79.7 102.7 79.4 102.9 79 103.1 78.7 103.5 77.8 104.3 77.2 105.3 76.8 106.4L76.5 107.4 76.5 108.5 76.5 109.3 94.6 109.3 94.6 114.4 76.5 114.4 76.5 127.4 69.7 127.4 69.7 111.9C69.7 110.5 69.8 109.3 69.9 108.3 69.9 107.3 70.1 106.4 70.3 105.6 70.8 103 72 100.9 73.8 99.3 74.9 98.3 76.3 97.5 77.9 97 79.5 96.5 81.5 96.3 83.9 96.3L94.6 96.3 94.6 101.7zM66.5 114.4L48.3 114.4 48.3 114.6 48.7 117.1C49.1 118.3 49.8 119.5 50.8 120.5 51 120.7 51.2 120.8 51.4 120.9 51.7 121.1 52.2 121.4 52.8 121.7L54.1 122 55.8 122.1 66.5 122.1 66.5 127.4 53.9 127.4C49.7 127.4 46.5 126.1 44.2 123.4 42 120.7 40.9 116.9 40.9 111.9 40.9 106.8 42 102.9 44.2 100.3 46.5 97.6 49.7 96.3 53.9 96.3L66.5 96.3 66.5 101.7 55.8 101.7 55.1 101.7 54.3 101.7C53.8 101.7 53.2 101.9 52.6 102.1 52.1 102.4 51.4 102.8 50.8 103.3 50.1 103.9 49.6 104.7 49.1 105.8 48.8 106.5 48.5 107.6 48.3 109.1L48.3 109.3 66.5 109.3 66.5 114.4zM36.2 127.4L29.5 127.4 29.5 96.3 36.2 96.3 36.2 127.4z" id="path1435" style="fill:#fff;font-family:Trek;font-size:40;stroke-width:1"/>
</svg>
